__todo__/redhat-icon.svg

<svg height="194" preserveAspectRatio="xMidYMid" viewBox="0 0 256 194" width="256" xmlns="http://www.w3.org/2000/svg"><path d="m170.758031 111.610687c16.824312 0 41.166443-3.469762 41.166443-23.4814142.050301-1.5444502-.089722-3.0892189-.416909-4.5994524l-10.019275-43.5199644c-2.313175-9.575468-4.343927-13.9193953-21.154791-22.3248272-13.04523-6.6705508-41.462315-17.6850288-49.867747-17.6850288-7.827138 0-10.099967 10.0865183-19.433358 10.0865183-8.983726 0-15.6542767-7.53126699-24.0597087-7.53126699-8.0692146 0-13.3276528 5.50051466-17.3891576 16.81086389 0 0-11.3103492 31.9002953-12.7628078 36.526645-.2308556.8495513-.3306293 1.7293736-.2958712 2.6090461 0 12.3996932 48.8187483 53.0550867 114.2331823 53.0550867m43.748592-15.3046108c2.326624 11.0144778 2.326624 12.1710658 2.326624 13.6235238 0 18.828168-21.16824 29.277801-48.993582 29.277801-62.88608.040346-117.9719184-36.809068-117.9719184-61.1646473-.0036353-3.39019.6874984-6.7451634 2.0307524-9.8578906-22.6206985 1.1296901-51.898499 5.1642974-51.898499 31.0126817 0 42.3364792 100.313787 94.5174012 179.741757 94.5174012 60.895673 0 76.254078-27.54292 76.254078-49.289453 0-17.106735-14.79356-36.526645-41.462315-48.1194168" fill="#e00"/><path d="m214.506623 96.2522822c2.326624 11.0144778 2.326624 12.1710658 2.326624 13.6235238 0 18.828168-21.16824 29.277834-48.993582 29.277834-62.88608.040313-117.9719327-36.809101-117.9719327-61.1646803-.003621-3.39019.6875127-6.7451634 2.0307667-9.8578906l4.9222209-12.1845141c-.2254633.8322366-.3251901 1.6935136-.2958712 2.5552513 0 12.3996932 48.8187483 53.0550867 114.2331823 53.0550867 16.824312 0 41.166443-3.469763 41.166443-23.481415.050301-1.5444501-.089722-3.0892189-.416909-4.5994523z"/></svg>

<?xml version="1.0" encoding="UTF-8"?>
<svg width="256px" height="194px" viewBox="0 0 256 194" version="1.1" xmlns="http://www.w3.org/2000/svg" xmlns:xlink="http://www.w3.org/1999/xlink" preserveAspectRatio="xMidYMid">
		<g>
				<path d="M170.758031,111.610687 C187.582343,111.610687 211.924474,108.140925 211.924474,88.1292728 C211.974775,86.5848226 211.834752,85.0400539 211.507565,83.5298204 L201.48829,40.009856 C199.175115,30.434388 197.144363,26.0904607 180.333499,17.6850288 C167.288269,11.014478 138.871184,0 130.465752,0 C122.638614,0 120.365785,10.0865183 111.032394,10.0865183 C102.048668,10.0865183 95.3781173,2.55525131 86.9726853,2.55525131 C78.9034707,2.55525131 73.6450325,8.05576597 69.5835277,19.3661152 C69.5835277,19.3661152 58.2731785,51.2664105 56.8207199,55.8927602 C56.5898643,56.7423115 56.4900906,57.6221338 56.5248487,58.5018063 C56.5248487,70.9014995 105.343597,111.556893 170.758031,111.556893 M214.506623,96.2522822 C216.833247,107.26676 216.833247,108.423348 216.833247,109.875806 C216.833247,128.703974 195.665007,139.153607 167.839665,139.153607 C104.953585,139.193953 49.8677466,102.344539 49.8677466,77.9889597 C49.8641113,74.5987697 50.555245,71.2437963 51.898499,68.1310691 C29.2778005,69.2607592 0,73.2953665 0,99.1437508 C0,141.48023 100.313787,193.661152 179.741757,193.661152 C240.63743,193.661152 255.995835,166.118232 255.995835,144.371699 C255.995835,127.264964 241.202275,107.845054 214.53352,96.2522822" fill="#EE0000"></path>
				<path d="M214.506623,96.2522822 C216.833247,107.26676 216.833247,108.423348 216.833247,109.875806 C216.833247,128.703974 195.665007,139.15364 167.839665,139.15364 C104.953585,139.193953 49.8677323,102.344539 49.8677323,77.9889597 C49.8641113,74.5987697 50.555245,71.2437963 51.898499,68.1310691 L56.8207199,55.946555 C56.5952566,56.7787916 56.4955298,57.6400686 56.5248487,58.5018063 C56.5248487,70.9014995 105.343597,111.556893 170.758031,111.556893 C187.582343,111.556893 211.924474,108.08713 211.924474,88.075478 C211.974775,86.5310279 211.834752,84.9862591 211.507565,83.4760257 L214.506623,96.2522822 Z" fill="#000000"></path>
		</g>
</svg>
